src/files/images/projects/logos/logo-lifeline_response.svg

<?xml version="1.0" encoding="UTF-8" standalone="no"?>
<svg width="140px" height="140px" viewBox="0 0 140 140" version="1.1" xmlns="http://www.w3.org/2000/svg" xmlns:xlink="http://www.w3.org/1999/xlink" xmlns:sketch="http://www.bohemiancoding.com/sketch/ns">
    <!-- Generator: Sketch 3.1.1 (8761) - http://www.bohemiancoding.com/sketch -->
    <title>logo-lifeline_response</title>
    <desc>Created with Sketch.</desc>
    <defs></defs>
    <g id="Page-1" stroke="none" stroke-width="1" fill="none" fill-rule="evenodd" sketch:type="MSPage">
        <g id="Desktop" sketch:type="MSArtboardGroup" transform="translate(-924.000000, -6456.000000)" fill="#999999">
            <g id="logo-lifeline_response" sketch:type="MSLayerGroup" transform="translate(924.000000, 6456.000000)">
                <path id="Fill-1" sketch:type="MSShapeGroup" d="M121.404528,130.583118 C121.404528,130.575591 121.406415,130.570699 121.404528,130.563172 L121.404528,130.583118"></path>
                <path d="M3.74754717,101.16543 L3.74754717,117.966183 L13.0562264,117.966183 L13.0562264,121.006667 L0.105660377,121.006667 L0.105660377,101.16543 L3.74754717,101.16543" id="Fill-2" sketch:type="MSShapeGroup"></path>
                <path d="M19.5218868,101.16543 L23.1641509,101.16543 L23.1641509,121.007043 L19.5218868,121.007043 L19.5218868,101.16543 Z" id="Fill-3" sketch:type="MSShapeGroup"></path>
                <path d="M34.6113208,121.006667 L30.9675472,121.006667 L30.9675472,101.16543 L43.634717,101.16543 L43.634717,104.204785 L34.6113208,104.204785 L34.6113208,109.335484 L42.3271698,109.335484 L42.3271698,112.375968 L34.6113208,112.375968 L34.6113208,121.006667" id="Fill-4" sketch:type="MSShapeGroup"></path>
                <path d="M53.5211321,117.966183 L63.3045283,117.966183 L63.3045283,121.006667 L49.8792453,121.006667 L49.8792453,101.16543 L62.7686792,101.16543 L62.7686792,104.204785 L53.5211321,104.204785 L53.5211321,109.335484 L61.4611321,109.335484 L61.4611321,112.375968 L53.5211321,112.375968 L53.5211321,117.966183" id="Fill-5" sketch:type="MSShapeGroup"></path>
                <path d="M73.8562264,101.16543 L73.8562264,117.966183 L83.1637736,117.966183 L83.1637736,121.006667 L70.2135849,121.006667 L70.2135849,101.16543 L73.8562264,101.16543" id="Fill-6" sketch:type="MSShapeGroup"></path>
                <path d="M89.6301887,101.16543 L93.2716981,101.16543 L93.2716981,121.007043 L89.6301887,121.007043 L89.6301887,101.16543 Z" id="Fill-7" sketch:type="MSShapeGroup"></path>
                <path d="M111.440377,110.388495 C112.866415,112.415484 114.026792,114.214785 114.918113,115.785269 L115.008302,115.785269 C114.888679,113.206559 114.829811,111.32672 114.829811,110.152151 L114.829811,101.16543 L118.472075,101.16543 L118.472075,121.006667 L114.650189,121.006667 L108.168679,111.870914 C107.028679,110.291398 105.84717,108.456344 104.629057,106.370269 L104.540377,106.370269 C104.659623,108.802204 104.718113,110.685054 104.718113,112.020323 L104.718113,121.006667 L101.076226,121.006667 L101.076226,101.16543 L104.897736,101.16543 L111.440377,110.388495" id="Fill-8" sketch:type="MSShapeGroup"></path>
                <path d="M129.918491,117.966183 L139.701509,117.966183 L139.701509,121.006667 L126.276226,121.006667 L126.276226,101.16543 L139.16566,101.16543 L139.16566,104.204785 L129.918491,104.204785 L129.918491,109.335484 L137.858868,109.335484 L137.858868,112.375968 L129.918491,112.375968 L129.918491,117.966183" id="Fill-9" sketch:type="MSShapeGroup"></path>
                <path d="M13.1332075,139.40914 C12.9433962,139.40914 12.7762264,139.331989 12.6320755,139.181452 L7.57245283,133.742903 L3.61811321,133.742903 C3.1690566,133.742903 2.94301887,133.531398 2.94301887,133.103495 C2.94301887,132.678602 3.1690566,132.465591 3.61811321,132.465591 L9.48415094,132.465591 C9.94716981,132.465591 10.36,132.342151 10.7218868,132.096398 C11.1192453,131.823548 11.3173585,131.472796 11.3173585,131.044892 L11.3173585,129.531613 C11.3173585,129.102581 11.1192453,128.748441 10.7218868,128.467312 C10.36,128.221935 9.94716981,128.098495 9.48415094,128.098495 L1.79283019,128.098495 L1.79283019,138.758441 C1.79283019,139.183333 1.56830189,139.397097 1.12075472,139.397097 C0.671698113,139.397097 0.447169811,139.183333 0.447169811,138.758441 L0.447169811,127.460968 C0.447169811,127.03457 0.671698113,126.821183 1.12075472,126.821183 L9.48415094,126.821183 C10.3215094,126.821183 11.0539623,127.071452 11.6758491,127.568602 C12.3354717,128.089086 12.6660377,128.742419 12.6660377,129.531613 L12.6660377,131.044892 C12.6660377,131.826183 12.3354717,132.478011 11.6758491,133.006022 C11.0539623,133.497151 10.3215094,133.742903 9.48415094,133.742903 L9.37396226,133.742903 L13.6433962,138.345215 C13.7577358,138.469785 13.8173585,138.607151 13.8173585,138.758441 C13.8173585,139.190108 13.5890566,139.40914 13.1332075,139.40914" id="Fill-10" sketch:type="MSShapeGroup"></path>
                <path d="M28.9098113,139.40914 L19.969434,139.40914 C19.5218868,139.40914 19.2977358,139.194247 19.2977358,138.767849 L19.2977358,127.460968 C19.2977358,127.03457 19.5218868,126.821183 19.969434,126.821183 L28.3328302,126.821183 C28.7826415,126.821183 29.0075472,127.03457 29.0075472,127.460968 C29.0075472,127.885108 28.7826415,128.098495 28.3328302,128.098495 L20.6437736,128.098495 L20.6437736,130.949301 L28.3328302,130.949301 C28.7826415,130.949301 29.0075472,131.161183 29.0075472,131.58871 C29.0075472,132.007581 28.7826415,132.215323 28.3328302,132.215323 L20.6437736,132.215323 L20.6437736,138.128817 L28.9098113,138.128817 C29.3573585,138.128817 29.5833962,138.34371 29.5833962,138.767849 C29.5833962,139.194247 29.3573585,139.40914 28.9098113,139.40914" id="Fill-11" sketch:type="MSShapeGroup"></path>
                <path d="M44.4592453,139.40914 L36.0962264,139.40914 C35.6471698,139.40914 35.4218868,139.194247 35.4218868,138.767849 C35.4218868,138.34371 35.6471698,138.128817 36.0962264,138.128817 L44.4592453,138.128817 C44.9207547,138.128817 45.3343396,138.006505 45.6966038,137.761505 C46.0928302,137.486022 46.2928302,137.137151 46.2928302,136.711129 L46.2928302,135.173011 C46.2928302,134.746237 46.0928302,134.396237 45.6966038,134.122634 C45.3343396,133.877258 44.9207547,133.753817 44.4592453,133.753817 L38.5939623,133.753817 C37.7528302,133.753817 37.0267925,133.503548 36.4086792,133.006022 C35.7524528,132.478011 35.4218868,131.826183 35.4218868,131.044892 L35.4218868,129.517312 C35.4218868,128.739409 35.7524528,128.08457 36.4086792,127.558065 C37.0267925,127.06543 37.7528302,126.821183 38.5939623,126.821183 L44.4592453,126.821183 C44.9067925,126.821183 45.1316981,127.03457 45.1316981,127.460968 C45.1316981,127.885108 44.9067925,128.098495 44.4592453,128.098495 L38.5939623,128.098495 C38.1377358,128.098495 37.7283019,128.221935 37.365283,128.467312 C36.9679245,128.748441 36.7698113,129.098817 36.7698113,129.517312 L36.7698113,131.044892 C36.7698113,131.465269 36.9679245,131.81414 37.365283,132.096398 C37.7283019,132.350054 38.1377358,132.476505 38.5939623,132.476505 L44.4592453,132.476505 C45.2966038,132.476505 46.029434,132.720376 46.6501887,133.213011 C47.3101887,133.739892 47.6415094,134.39172 47.6415094,135.173011 L47.6415094,136.711129 C47.6415094,137.506344 47.3,138.166075 46.6196226,138.692204 C45.9962264,139.167903 45.2769811,139.40914 44.4592453,139.40914" id="Fill-12" sketch:type="MSShapeGroup"></path>
                <path d="M63.1883019,133.753817 L57.3226415,133.753817 C56.8735849,133.753817 56.6490566,133.542312 56.6490566,133.114409 C56.6490566,132.687634 56.8735849,132.476505 57.3226415,132.476505 L63.1883019,132.476505 C63.6513208,132.476505 64.0641509,132.350054 64.4267925,132.096398 C64.8226415,131.823548 65.0233962,131.472796 65.0233962,131.044892 L65.0233962,129.517312 C65.0233962,129.093172 64.8226415,128.742419 64.4267925,128.467312 C64.0641509,128.221935 63.6513208,128.098495 63.1883019,128.098495 L55.4977358,128.098495 L55.4977358,138.767849 C55.4977358,139.194247 55.2724528,139.40914 54.8233962,139.40914 C54.3762264,139.40914 54.1513208,139.194247 54.1513208,138.767849 L54.1513208,127.460968 C54.1513208,127.03457 54.3762264,126.821183 54.8233962,126.821183 L63.1883019,126.821183 C64.0260377,126.821183 64.76,127.06543 65.3803774,127.558065 C66.0396226,128.08457 66.370566,128.739409 66.370566,129.517312 L66.370566,131.044892 C66.370566,131.841989 66.0343396,132.500968 65.3592453,133.027849 C64.730566,133.512957 64.0045283,133.753817 63.1883019,133.753817" id="Fill-13" sketch:type="MSShapeGroup"></path>
                <path d="M81.9188679,139.40914 L76.0513208,139.40914 C75.2116981,139.40914 74.4860377,139.163011 73.8683019,138.672258 C73.2113208,138.143871 72.8837736,137.490538 72.8837736,136.711129 L72.8837736,129.531613 C72.8837736,128.742419 73.2067925,128.089086 73.8603774,127.568602 C74.4815094,127.071452 75.2116981,126.821183 76.0513208,126.821183 L81.9188679,126.821183 C82.7581132,126.821183 83.4886792,127.071452 84.1128302,127.568602 C84.7724528,128.089086 85.1007547,128.742419 85.1007547,129.531613 L85.1007547,136.711129 C85.1007547,137.506344 84.76,138.166075 84.0803774,138.692204 C83.4577358,139.167903 82.7366038,139.40914 81.9188679,139.40914 L81.9188679,139.40914 Z M83.7535849,129.531613 C83.7535849,129.102581 83.5554717,128.748441 83.1562264,128.467312 C82.7932075,128.221935 82.3803774,128.098495 81.9188679,128.098495 L76.0513208,128.098495 C75.5898113,128.098495 75.1811321,128.225323 74.8283019,128.477097 C74.4271698,128.754462 74.2290566,129.102581 74.2290566,129.531613 L74.2290566,136.711129 C74.2290566,137.129624 74.4271698,137.480376 74.8283019,137.761505 C75.1875472,138.006505 75.5981132,138.128817 76.0513208,138.128817 L81.9188679,138.128817 C82.3803774,138.128817 82.7932075,138.006505 83.1562264,137.761505 C83.5554717,137.486022 83.7535849,137.137151 83.7535849,136.711129 L83.7535849,129.531613 L83.7535849,129.531613 Z" id="Fill-14" sketch:type="MSShapeGroup"></path>
                <path d="M103.199245,139.40914 C102.999245,139.40914 102.818868,139.324462 102.657736,139.158495 L92.9592453,129.15 L92.9592453,138.767849 C92.9592453,139.194247 92.734717,139.40914 92.2856604,139.40914 C91.8381132,139.40914 91.6120755,139.194247 91.6120755,138.767849 L91.6120755,127.493333 C91.6120755,127.039462 91.8230189,126.810269 92.2422642,126.810269 C92.4373585,126.810269 92.6203774,126.89871 92.7860377,127.071452 L102.483774,137.078441 L102.483774,127.448172 C102.483774,127.023656 102.709057,126.810269 103.157358,126.810269 C103.60717,126.810269 103.83283,127.023656 103.83283,127.448172 L103.83283,138.726452 C103.83283,139.181452 103.620755,139.40914 103.199245,139.40914" id="Fill-15" sketch:type="MSShapeGroup"></path>
                <path d="M119.379245,139.40914 L111.016226,139.40914 C110.566792,139.40914 110.344151,139.194247 110.344151,138.767849 C110.344151,138.34371 110.566792,138.128817 111.016226,138.128817 L119.379245,138.128817 C119.842264,138.128817 120.256226,138.006505 120.618113,137.761505 C121.016226,137.486022 121.215849,137.137151 121.215849,136.711129 L121.215849,135.173011 C121.215849,134.746237 121.016226,134.396237 120.618113,134.122634 C120.256226,133.877258 119.842264,133.753817 119.379245,133.753817 L113.513585,133.753817 C112.674717,133.753817 111.948679,133.503548 111.330566,133.006022 C110.673962,132.478011 110.344151,131.826183 110.344151,131.044892 L110.344151,129.517312 C110.344151,128.739409 110.673962,128.08457 111.330566,127.558065 C111.948679,127.06543 112.674717,126.821183 113.513585,126.821183 L119.379245,126.821183 C119.828302,126.821183 120.05434,127.03457 120.05434,127.460968 C120.05434,127.885108 119.828302,128.098495 119.379245,128.098495 L113.513585,128.098495 C113.058491,128.098495 112.649811,128.221935 112.289057,128.467312 C111.888302,128.748441 111.690943,129.098817 111.690943,129.517312 L111.690943,131.044892 C111.690943,131.465269 111.888302,131.81414 112.289057,132.096398 C112.649811,132.350054 113.058491,132.476505 113.513585,132.476505 L119.379245,132.476505 C120.218868,132.476505 120.951321,132.720376 121.573962,133.213011 C122.233585,133.739892 122.561132,134.39172 122.561132,135.173011 L122.561132,136.711129 C122.561132,137.506344 122.220755,138.166075 121.543019,138.692204 C120.918868,139.167903 120.198491,139.40914 119.379245,139.40914" id="Fill-16" sketch:type="MSShapeGroup"></path>
                <path d="M138.68566,139.40914 L129.746415,139.40914 C129.298868,139.40914 129.07434,139.194247 129.07434,138.767849 L129.07434,127.460968 C129.07434,127.03457 129.298868,126.821183 129.746415,126.821183 L138.111321,126.821183 C138.558868,126.821183 138.783019,127.03457 138.783019,127.460968 C138.783019,127.885108 138.558868,128.098495 138.111321,128.098495 L130.42,128.098495 L130.42,130.949301 L138.111321,130.949301 C138.558868,130.949301 138.783019,131.161183 138.783019,131.58871 C138.783019,132.007581 138.558868,132.215323 138.111321,132.215323 L130.42,132.215323 L130.42,138.128817 L138.68566,138.128817 C139.133208,138.128817 139.361132,138.34371 139.361132,138.767849 C139.361132,139.194247 139.133208,139.40914 138.68566,139.40914" id="Fill-17" sketch:type="MSShapeGroup"></path>
                <path d="M70.6573585,3.47290323 C94.0784906,3.47290323 113.116226,22.1820968 113.56717,45.4326344 C113.617358,44.5828495 113.646038,43.727043 113.646038,42.8648387 C113.646038,19.1879032 94.3996226,-0.00677419355 70.6588679,-0.00677419355 C46.9173585,-0.00677419355 27.670566,19.1879032 27.670566,42.8648387 C27.670566,43.7383333 27.7,44.6054301 27.7516981,45.466129 C28.185283,22.2001613 47.2271698,3.47290323 70.6573585,3.47290323" id="Fill-18" sketch:type="MSShapeGroup"></path>
                <path d="M70.6573585,18.2888172 C87.3656604,18.2888172 100.909811,31.7946774 100.909811,48.4584409 C100.909811,53.9805376 99.4150943,59.1515054 96.8173585,63.6036559 C100.58717,58.3502688 102.813208,51.9196774 102.813208,44.9663441 C102.813208,27.2555914 88.4169811,12.8984409 70.6573585,12.8984409 C52.8984906,12.8984409 38.5045283,27.2555914 38.5045283,44.9663441 C38.5045283,51.9196774 40.7301887,58.3502688 44.4996226,63.6036559 C41.9022642,59.1515054 40.4075472,53.9805376 40.4075472,48.4584409 C40.4075472,31.7946774 53.9498113,18.2888172 70.6573585,18.2888172" id="Fill-19" sketch:type="MSShapeGroup"></path>
                <path d="M92.5079245,50.2524731 C92.5079245,38.2173656 82.7264151,28.4602688 70.6573585,28.4602688 C58.5883019,28.4602688 48.8064151,38.2173656 48.8064151,50.2524731 C48.8064151,59.4352688 53.0007547,66.5161828 61.0611321,69.7245161 C54.3154717,66.6328495 51.1316981,60.6105914 51.1316981,52.7216667 C51.1316981,41.9224731 59.9124528,33.167957 70.7411321,33.167957 C81.5724528,33.167957 90.3479245,41.9224731 90.3479245,52.7216667 C90.3479245,60.1424194 86.205283,66.5970968 80.0992453,69.9104301 C87.44,66.3968817 92.5079245,58.9151613 92.5079245,50.2524731" id="Fill-20" sketch:type="MSShapeGroup"></path>
                <path d="M84.0173585,85.3089247 L71.0033962,54.237957 L54.7720755,85.3089247 L16.8739623,89.7561828 L58.6022642,90.6462366 L70.3290566,62.8995161 L79.9,90.6462366 L124.443396,89.7561828 L84.0173585,85.3089247" id="Fill-21" sketch:type="MSShapeGroup"></path>
            </g>
        </g>
    </g>
</svg>

<svg width="140" height="140" viewBox="0 0 140 140" xmlns="http://www.w3.org/2000/svg" xmlns:sketch="http://www.bohemiancoding.com/sketch/ns"><title>logo-lifeline_response</title><desc>Created with Sketch.</desc><path sketch:type="MSShapeGroup" d="M121.405 130.583v-.02.02m-117.657-29.418v16.801h9.309v3.04h-12.951v-19.841h3.642m15.774 0h3.642v19.842h-3.642v-19.842zm15.089 19.842h-3.644v-19.841h12.667v3.039h-9.023v5.131h7.716v3.04h-7.716v8.631m18.91-3.041h9.783v3.04h-13.425v-19.841h12.889v3.039h-9.248v5.131h7.94v3.04h-7.94v5.59m20.336-16.8v16.801h9.308v3.04h-12.95v-19.841h3.643m15.773 0h3.642v19.842h-3.642v-19.842zm21.81 9.223c1.426 2.027 2.586 3.826 3.478 5.397h.09c-.12-2.579-.178-4.459-.178-5.633v-8.987h3.642v19.841h-3.822l-6.482-9.136c-1.14-1.58-2.322-3.415-3.54-5.501h-.089c.119 2.432.178 4.315.178 5.65v8.986h-3.642v-19.841h3.822l6.543 9.223m18.478 7.579h9.783v3.04h-13.425v-19.841h12.889v3.039h-9.247v5.131h7.94v3.04h-7.94v5.59m-116.785 21.444c-.19 0-.357-.077-.501-.228l-5.06-5.439h-3.954c-.449 0-.675-.212-.675-.639 0-.425.226-.638.675-.638h5.866c.463 0 .876-.123 1.238-.369.397-.273.595-.624.595-1.052v-1.513c0-.429-.198-.783-.595-1.064-.362-.245-.775-.369-1.238-.369h-7.691v10.66c0 .425-.225.639-.672.639-.449 0-.674-.214-.674-.639v-11.297c0-.426.225-.64.674-.64h8.363c.837 0 1.57.25 2.192.747.66.52.99 1.174.99 1.963v1.513c0 .781-.331 1.433-.99 1.961-.622.491-1.354.737-2.192.737h-.11l4.269 4.602c.114.125.174.262.174.413 0 .432-.228.651-.684.651m15.777.001h-8.94c-.448 0-.672-.215-.672-.641v-11.307c0-.426.224-.64.672-.64h8.363c.45 0 .675.213.675.64 0 .424-.225.638-.675.638h-7.689v2.851h7.689c.45 0 .675.212.675.639 0 .419-.225.627-.675.627h-7.689v5.913h8.266c.448 0 .674.215.674.639 0 .426-.226.641-.674.641m15.549 0h-8.363c-.449 0-.674-.215-.674-.641 0-.424.225-.639.674-.639h8.363c.462 0 .875-.122 1.237-.367.396-.275.596-.624.596-1.05v-1.538c0-.427-.2-.777-.596-1.05-.362-.245-.776-.369-1.237-.369h-5.865c-.841 0-1.567-.25-2.185-.748-.656-.528-.987-1.18-.987-1.961v-1.528c0-.778.331-1.433.987-1.959.618-.493 1.344-.737 2.185-.737h5.865c.448 0 .672.213.672.64 0 .424-.225.638-.672.638h-5.865c-.456 0-.866.123-1.229.369-.397.281-.595.632-.595 1.05v1.528c0 .42.198.769.595 1.052.363.254.772.38 1.229.38h5.865c.837 0 1.57.244 2.191.737.66.527.991 1.179.991 1.96v1.538c0 .795-.342 1.455-1.022 1.981-.623.476-1.343.717-2.16.717m18.729-5.658h-5.866c-.449 0-.674-.212-.674-.639 0-.427.225-.638.674-.638h5.866c.463 0 .876-.126 1.238-.38.396-.273.597-.624.597-1.052v-1.528c0-.424-.201-.775-.597-1.05-.363-.245-.775-.369-1.238-.369h-7.691v10.669c0 .426-.225.641-.674.641-.447 0-.672-.215-.672-.641v-11.307c0-.426.225-.64.672-.64h8.365c.838 0 1.572.244 2.192.737.659.527.99 1.181.99 1.959v1.528c0 .797-.336 1.456-1.011 1.983-.629.485-1.355.726-2.171.726m18.731 5.656h-5.868c-.84 0-1.565-.246-2.183-.737-.657-.528-.985-1.182-.985-1.961v-7.18c0-.789.323-1.443.977-1.963.621-.497 1.351-.747 2.191-.747h5.868c.839 0 1.57.25 2.194.747.66.52.988 1.174.988 1.963v7.18c0 .795-.341 1.455-1.02 1.981-.623.476-1.344.717-2.162.717zm1.835-9.878c0-.429-.198-.783-.597-1.064-.363-.245-.776-.369-1.237-.369h-5.868c-.462 0-.87.127-1.223.379-.401.277-.599.625-.599 1.055v7.18c0 .418.198.769.599 1.05.359.245.77.367 1.223.367h5.868c.462 0 .874-.122 1.237-.367.399-.275.597-.624.597-1.05v-7.18zm19.445 9.878c-.2 0-.38-.085-.542-.251l-9.698-10.008v9.618c0 .426-.225.641-.674.641-.448 0-.674-.215-.674-.641v-11.275c0-.454.211-.683.63-.683.195 0 .378.088.544.261l9.698 10.007v-9.63c0-.425.225-.638.674-.638.45 0 .675.213.675.638v11.278c0 .455-.212.683-.634.683m16.181 0h-8.363c-.449 0-.672-.215-.672-.641 0-.424.223-.639.672-.639h8.363c.463 0 .877-.122 1.239-.367.398-.275.598-.624.598-1.05v-1.538c0-.427-.2-.777-.598-1.05-.362-.245-.776-.369-1.239-.369h-5.866c-.839 0-1.565-.25-2.183-.748-.657-.528-.986-1.18-.986-1.961v-1.528c0-.778.33-1.433.986-1.959.618-.493 1.344-.737 2.183-.737h5.866c.449 0 .675.213.675.64 0 .424-.226.638-.675.638h-5.866c-.455 0-.864.123-1.225.369-.401.281-.598.632-.598 1.05v1.528c0 .42.197.769.598 1.052.361.254.769.38 1.225.38h5.866c.84 0 1.572.244 2.195.737.66.527.987 1.179.987 1.96v1.538c0 .795-.34 1.455-1.018 1.981-.624.476-1.345.717-2.164.717m19.307-.003h-8.939c-.448 0-.672-.215-.672-.641v-11.307c0-.426.225-.64.672-.64h8.365c.448 0 .672.213.672.64 0 .424-.224.638-.672.638h-7.691v2.851h7.691c.448 0 .672.212.672.639 0 .419-.224.627-.672.627h-7.691v5.913h8.266c.448 0 .675.215.675.639 0 .426-.228.641-.675.641m-68.03-135.936c23.421 0 42.459 18.709 42.91 41.96.05-.85.079-1.706.079-2.568 0-23.677-19.246-42.872-42.987-42.872-23.742 0-42.988 19.195-42.988 42.872 0 .873.029 1.741.081 2.601.434-23.266 19.475-41.993 42.906-41.993m-.001 14.816c16.708 0 30.252 13.506 30.252 30.17 0 5.522-1.495 10.693-4.092 15.145 3.77-5.253 5.996-11.684 5.996-18.637 0-17.711-14.396-32.068-32.156-32.068-17.759 0-32.153 14.357-32.153 32.068 0 6.953 2.226 13.384 5.995 18.637-2.597-4.452-4.092-9.623-4.092-15.145 0-16.664 13.542-30.17 30.25-30.17m21.851 31.963c0-12.035-9.782-21.792-21.851-21.792-12.069 0-21.851 9.757-21.851 21.792 0 9.183 4.194 16.264 12.255 19.472-6.746-3.092-9.929-9.114-9.929-17.003 0-10.799 8.781-19.554 19.609-19.554 10.831 0 19.607 8.755 19.607 19.554 0 7.421-4.143 13.875-10.249 17.189 7.341-3.514 12.409-10.995 12.409-19.658m-8.491 35.057l-13.014-31.071-16.231 31.071-37.898 4.447 41.728.89 11.727-27.747 9.571 27.747 44.543-.89-40.426-4.447" fill="#999"/></svg>
